X: 5
T: The Blackbird
R: hornpipe
M: 4/4
L: 1/8
K: Dmaj
d-^c/=c/|B3{BAB}B AB c2|cB/G/ A2 ABcA|d2 e{fef}d/c/A3B/A/| GF (G2|
G2) AB A2 F>D|D3E F{FGF}F/E/ Ff f(3e/d/c/|d3e f<d A3B/A/|GF G3A/B/ A>F D2|D2D6:|
|:d-e|f2{fgf}fe de f>g|a3b a/g/f/g/ a>f|g3a/b/ a>f d>e|f3g f/e/d/e/ f3g |a3b a/g/f/g/ af |
g3f d>e fg|a3b a/g/f/g/ af|g2 ge =f2 e2 |d2 dc A>B (c2|
c2) cBcd d/e/f/g/|a4 A3G/E/|F3D =c3d|
d=c A3G/F/ (G2|G3)A/B/ A>F D2| D2 D2 D4:||


Tune 1104	Setting 14357

